assets/images/simple-illustrations/simple-illustration__user-shield.svg

<svg width="48" height="48" viewBox="0 0 48 48" fill="none" xmlns="http://www.w3.org/2000/svg">
<path d="M37.4114 32.3137C37.4114 34.549 35.9247 35.2941 33.6891 35.2941C31.4535 35.2941 27.4353 35.2941 23.9992 35.2941C20.5631 35.2941 16.6872 35.2941 14.3139 35.2941C11.9406 35.2941 10.5879 34.549 10.5879 32.3137C10.5879 26.3529 17.2947 21.8823 23.9992 21.8823C30.7037 21.8823 37.4114 26.3529 37.4114 32.3137Z" fill="#4ED7DE"/>
<path d="M29.9631 14.4314C29.9631 17.7234 27.294 20.3921 24.0015 20.3921C20.709 20.3921 18.0399 17.7234 18.0399 14.4314C18.0399 11.1393 20.709 8.47058 24.0015 8.47058C27.294 8.47058 29.9631 11.1393 29.9631 14.4314Z" fill="#4ED7DE"/>
<path d="M37.4114 32.3137C37.4114 34.549 35.9247 35.2941 33.6891 35.2941C31.4535 35.2941 27.4353 35.2941 23.9992 35.2941C20.5631 35.2941 16.6872 35.2941 14.3139 35.2941C11.9406 35.2941 10.5879 34.549 10.5879 32.3137C10.5879 26.3529 17.2947 21.8823 23.9992 21.8823C30.7037 21.8823 37.4114 26.3529 37.4114 32.3137Z" stroke="#002140"/>
<path d="M29.9631 14.4314C29.9631 17.7234 27.294 20.3921 24.0015 20.3921C20.709 20.3921 18.0399 17.7234 18.0399 14.4314C18.0399 11.1393 20.709 8.47058 24.0015 8.47058C27.294 8.47058 29.9631 11.1393 29.9631 14.4314Z" stroke="#002140"/>
<path d="M41.6323 26.414L40.4539 26.06L39.3935 24.9406L36.0337 26.119L33.4409 23.7032L30.8482 26.06L27.5474 24.8226C27.5474 24.8226 26.782 25.942 26.31 26.06C25.838 26.178 25.0726 26.473 25.0726 26.473C25.0726 26.473 23.3632 43.6227 33.1476 43.5047C42.9303 43.3867 42.1059 28.7118 41.6339 26.414H41.6323Z" fill="#E4BC07"/>
<path d="M27.1349 25.411C27.1349 25.411 25.8975 41.3233 33.2054 41.3823C38.981 41.4413 39.748 31.4226 39.9233 30.0082C40.1004 28.5938 39.9233 25.824 39.9233 25.824L39.3923 24.9406L36.0325 26.119L33.4398 23.7032L30.847 26.06L27.5462 24.8226L27.1332 25.4126L27.1349 25.411Z" fill="#FED607"/>
<path d="M33.4414 38.1798C35.9369 38.1798 37.9599 35.8053 37.9599 32.8762C37.9599 29.9472 35.9369 27.5727 33.4414 27.5727C30.9459 27.5727 28.9229 29.9472 28.9229 32.8762C28.9229 35.8053 30.9459 38.1798 33.4414 38.1798Z" fill="#FFF2B2"/>
<path d="M34.3834 31.2669L33.559 29.7345L33.087 29.9295L32.1446 31.5013L30.3369 31.7766L30.4156 32.2879L31.476 33.3876L31.4366 35.2347L31.7513 35.6281L33.441 34.9594L34.8948 35.5887L35.4045 35.3134L35.2865 33.427L36.4271 32.0913L36.2698 31.6586L34.3834 31.2669Z" fill="#FED607"/>
<path d="M37.3563 25.5831C37.2432 26.0911 37.5103 26.6189 37.8889 26.9761C38.2675 27.3334 38.7444 27.5612 39.1935 27.8235C39.6426 28.0857 40.0867 28.4053 40.3211 28.8691C40.5849 29.3903 40.5456 30.0081 40.68 30.5768C40.8144 31.1456 41.2733 31.7421 41.8518 31.6569L41.6322 26.4124C41.6322 26.4124 40.3948 26.1173 40.1195 25.7633C39.8441 25.4093 39.3918 24.939 39.3918 24.939L37.3546 25.5814L37.3563 25.5831Z" fill="#FFF2B2"/>
<path d="M25.3862 34.2481C25.3534 33.3713 27.1513 34.3907 27.6413 35.1184C28.1314 35.846 28.2887 36.7393 28.5477 37.5767C28.9213 38.7863 29.5785 39.9761 30.6668 40.6219C31.2207 40.9513 31.896 41.1529 32.2516 41.6888C32.6187 42.2428 32.5237 42.9721 32.4155 43.6293C32.4155 43.6293 25.7009 42.4542 25.3878 34.2481H25.3862Z" fill="#FFF2B2"/>
<path d="M29.1482 30.6966C28.8384 31.4358 30.7347 30.6278 31.3689 30.1377C31.7229 29.864 32.0474 29.5543 32.3359 29.2134C32.7932 28.6742 33.1717 28.0514 33.747 27.64C33.747 27.64 30.6707 27.0631 29.1482 30.6966V30.6966Z" fill="#FFF2B2"/>
<path d="M25.0708 26.3943C25.0708 26.3943 23.2631 43.5243 33.4785 43.5243" stroke="#002140" stroke-linecap="round" stroke-linejoin="round"/>
<path d="M41.7651 26.3943C41.7651 26.3943 43.5728 43.5243 33.3574 43.5243" stroke="#002140" stroke-linecap="round" stroke-linejoin="round"/>
<path d="M25.0713 26.3942C26.2349 26.3942 26.938 25.5764 27.2494 25.0995C27.3723 24.9094 27.6182 24.8389 27.8263 24.9274L30.5551 26.0697C30.7288 26.1418 30.9288 26.1042 31.0648 25.9747L33.4118 23.7048" stroke="#002140" stroke-linecap="round" stroke-linejoin="round"/>
<path d="M41.8092 26.3942C40.6456 26.3942 39.9425 25.5764 39.6311 25.0995C39.5082 24.9094 39.2623 24.8389 39.0542 24.9274L36.3254 26.0697C36.1517 26.1418 35.9517 26.1042 35.8157 25.9747L33.4688 23.7048" stroke="#002140" stroke-linecap="round" stroke-linejoin="round"/>
<path d="M27.0758 25.529C27.0758 25.529 25.9105 41.4921 33.3004 41.4921C40.6903 41.4921 39.9823 25.7044 39.9823 25.7044" stroke="#002140" stroke-linecap="round" stroke-linejoin="round"/>
<path d="M33.2907 38.1405C35.8713 38.1405 37.9633 35.7594 37.9633 32.8222C37.9633 29.885 35.8713 27.5039 33.2907 27.5039C30.7101 27.5039 28.6182 29.885 28.6182 32.8222C28.6182 35.7594 30.7101 38.1405 33.2907 38.1405Z" stroke="#002140" stroke-linecap="round" stroke-linejoin="round"/>
<path d="M33.7248 29.8788L34.3885 31.2227C34.4443 31.3358 34.5524 31.4145 34.677 31.4325L36.1602 31.6472C36.4732 31.6931 36.5994 32.0782 36.3716 32.2995L35.2981 33.3451C35.208 33.4336 35.167 33.5598 35.1883 33.6827L35.4424 35.1594C35.4964 35.4724 35.1687 35.7101 34.8884 35.5626L33.5625 34.866C33.4511 34.807 33.3183 34.807 33.2069 34.866L31.881 35.5626C31.6007 35.7101 31.273 35.4724 31.327 35.1594L31.5811 33.6827C31.6024 33.5582 31.5614 33.432 31.4713 33.3451L30.3978 32.2995C30.1716 32.0782 30.2962 31.6931 30.6092 31.6472L32.0924 31.4325C32.217 31.4145 32.3251 31.3358 32.3809 31.2227L33.0446 29.8788C33.1856 29.5953 33.5904 29.5953 33.7297 29.8788H33.7248Z" stroke="#002140" stroke-linecap="round" stroke-linejoin="round"/>
</svg>

<svg xmlns="http://www.w3.org/2000/svg" width="48" height="48" fill="none" viewBox="0 0 48 48"><path fill="#4ed7de" d="M37.411 32.314c0 2.235-1.486 2.98-3.722 2.98H14.314c-2.373 0-3.726-.745-3.726-2.98 0-5.961 6.707-10.432 13.411-10.432 6.705 0 13.412 4.47 13.412 10.432m-7.448-17.883a5.961 5.961 0 1 1-11.922 0 5.961 5.961 0 0 1 11.922 0"/><path stroke="#002140" d="M37.411 32.314c0 2.235-1.486 2.98-3.722 2.98H14.314c-2.373 0-3.726-.745-3.726-2.98 0-5.961 6.707-10.432 13.411-10.432 6.705 0 13.412 4.47 13.412 10.432Zm-7.448-17.883a5.961 5.961 0 1 1-11.922 0 5.961 5.961 0 0 1 11.922 0Z"/><path fill="#e4bc07" d="m41.632 26.414-1.178-.354-1.06-1.12-3.36 1.179-2.593-2.416-2.593 2.357-3.3-1.237s-.766 1.119-1.238 1.237-1.237.413-1.237.413-1.71 17.15 8.075 17.032c9.782-.118 8.958-14.793 8.486-17.091z"/><path fill="#fed607" d="M27.135 25.411s-1.238 15.912 6.07 15.971c5.776.06 6.543-9.96 6.718-11.374.177-1.414 0-4.184 0-4.184l-.53-.883-3.36 1.178-2.593-2.416-2.593 2.357-3.3-1.237-.414.59z"/><path fill="#fff2b2" d="M33.441 38.18c2.496 0 4.519-2.375 4.519-5.304s-2.023-5.303-4.519-5.303-4.518 2.374-4.518 5.303c0 2.93 2.023 5.304 4.518 5.304"/><path fill="#fed607" d="m34.383 31.267-.824-1.532-.472.195-.942 1.571-1.808.276.079.51 1.06 1.1-.04 1.848.315.393 1.69-.669 1.454.63.51-.276-.119-1.886 1.141-1.336-.157-.432z"/><path fill="#fff2b2" d="M37.356 25.583c-.113.508.154 1.036.533 1.393.378.357.855.585 1.304.848.45.262.894.581 1.128 1.045.264.521.225 1.14.359 1.708s.593 1.165 1.172 1.08l-.22-5.245s-1.237-.295-1.512-.649a13 13 0 0 0-.728-.824l-2.037.642zm-11.97 8.665c-.033-.877 1.765.143 2.255.87.49.728.648 1.621.907 2.459.373 1.21 1.03 2.4 2.119 3.045.554.33 1.229.53 1.585 1.067.367.554.272 1.283.163 1.94 0 0-6.714-1.175-7.027-9.38zm3.762-3.551c-.31.739 1.587-.07 2.22-.56q.534-.411.968-.924c.457-.539.836-1.162 1.411-1.573 0 0-3.076-.577-4.599 3.057"/><path stroke="#002140" stroke-linecap="round" stroke-linejoin="round" d="M25.07 26.394s-1.807 17.13 8.408 17.13"/><path stroke="#002140" stroke-linecap="round" stroke-linejoin="round" d="M41.765 26.394s1.808 17.13-8.408 17.13m-8.286-17.13c1.164 0 1.867-.818 2.178-1.294a.47.47 0 0 1 .577-.173l2.73 1.143a.48.48 0 0 0 .509-.095l2.347-2.27m8.398 2.689c-1.164 0-1.867-.818-2.179-1.294a.47.47 0 0 0-.577-.173l-2.729 1.143a.48.48 0 0 1-.51-.095l-2.346-2.27"/><path stroke="#002140" stroke-linecap="round" stroke-linejoin="round" d="M27.076 25.529S25.91 41.492 33.3 41.492s6.682-15.788 6.682-15.788"/><path stroke="#002140" stroke-linecap="round" stroke-linejoin="round" d="M33.29 38.14c2.581 0 4.673-2.38 4.673-5.318s-2.092-5.318-4.672-5.318-4.673 2.381-4.673 5.318 2.092 5.319 4.673 5.319"/><path stroke="#002140" stroke-linecap="round" stroke-linejoin="round" d="m33.725 29.879.663 1.344a.38.38 0 0 0 .289.21l1.483.214c.313.046.44.431.212.653l-1.074 1.045a.38.38 0 0 0-.11.338l.254 1.476a.382.382 0 0 1-.554.404l-1.325-.697a.38.38 0 0 0-.356 0l-1.326.697a.382.382 0 0 1-.554-.404l.254-1.476a.38.38 0 0 0-.11-.338L30.398 32.3a.383.383 0 0 1 .211-.653l1.483-.214a.38.38 0 0 0 .289-.21l.664-1.344a.382.382 0 0 1 .685 0z"/></svg>
